X:0334
T:The Bonton.
N:bar 7 sounds wrong
M:2/4
L:1/16
Q:1/4=120
I: :: ::
Z:Jack Campin * www.campin.me.uk * 2009
K:G
BcdB G2G2|A2G2A2G2|BcdB G2G2|A2D2 D4  |\
BcdB G2G2|g2f2e2d2|c2e2A2c2 |d2D2 D4 :|
d2B2e2d2 |c2B2c2A2|c2A2d2c2 |B2A2B2G2 |\
BcdB G2G2|A2G2A2G2|ABce dcBA|G2G2 G4 :|
<end>
<start>
